dist/svgs/devui-icons/op/update-kanban.svg

<?xml version="1.0" encoding="UTF-8"?>
<svg width="16px" height="16px" viewBox="0 0 16 16" version="1.1" xmlns="http://www.w3.org/2000/svg" xmlns:xlink="http://www.w3.org/1999/xlink">
    <title>升级新看板</title>
    <desc>Created with Sketch.</desc>
    <g id="升级新看板" stroke="none" stroke-width="1" fill="none" fill-rule="evenodd">
        <path d="M8,15.5 C3.85786438,15.5 0.5,12.1421356 0.5,8 C0.5,3.85786438 3.85786438,0.5 8,0.5 C12.1421356,0.5 15.5,3.85786438 15.5,8 C15.5,12.1421356 12.1421356,15.5 8,15.5 Z M8,13.7 C11.1480231,13.7 13.7,11.1480231 13.7,8 C13.7,4.85197693 11.1480231,2.3 8,2.3 C4.85197693,2.3 2.3,4.85197693 2.3,8 C2.3,11.1480231 4.85197693,13.7 8,13.7 Z M9.71428571,8 L9.71428571,10.2857143 L6.28571429,10.2857143 L6.28571429,8 L4.28571429,8 L8,4 L11.7142857,8 L9.71428571,8 Z M6.28571429,10.8571429 L9.71428571,10.8571429 L9.71428571,12 L6.28571429,12 L6.28571429,10.8571429 Z" id="形状结合" fill="#293040" fill-rule="nonzero"></path>
    </g>
</svg>

<svg xmlns="http://www.w3.org/2000/svg" viewBox="0 0 16 16"><path d="M8 15.5a7.5 7.5 0 110-15 7.5 7.5 0 010 15zm0-1.8A5.7 5.7 0 108 2.3a5.7 5.7 0 000 11.4zM9.714 8v2.286H6.286V8h-2L8 4l3.714 4h-2zm-3.428 2.857h3.428V12H6.286v-1.143z"/></svg>
